X:1
T:Title
%%score 1 2 3
L:1/8
Q:1/4=95
M:3/8
K:G
V:1 treble nm="Grand Piano, Soprano"
V:2 treble nm="Drawbar Organ, Staff-1"
V:3 bass nm="Choir Pad, Here We Suffer Grief and Pain"
V:1
 B,2 B, | B,DG | A2 G | F3 | F2 F | FGA | B2 A | G2 G | A2 F | G2 E | F3 | B3 | GAB | B2 B | c2 B | %15
w: By~Samuel~Ashmead,~1847 *|||||||||||||||
 ABc | B2 G | B3 | GAB | B2 B | A2 G | FGA | G2 D | B,3- | B,3- | B, z z |] %26
w: |||||||||||
V:2
 G2 G | GAB | c2 B | A3 | A2 A | ABc | d2 c | B2 d | d2 c | e2 c | d3 | d3 | Bcd | g2 d | e2 d | %15
 cde | d2 B | d3 | Bcd | g2 d | c2 B | ABc | B2 A | G3- | G3- | G z z |] %26
V:3
 G,2 G, | G,2 G, | F,2 G, | D,3 | D,2 D, | D,2 D, | G,2 D, | G,2 G, | F,2 A, | A,2 A,, | D,3 | %11
 G,3 | G,G,G, | G,2 G, | C,2 D, | E,2 C, | G,2 G, | G,3 | G,G,G, | G,2 G, | C,2 C, | D,2 D, | %22
 G,2 D, | G,,3- | G,,3- | G,, z z |] %26

